img/services/web/internet-shop.svg

<svg xmlns:dc="http://purl.org/dc/elements/1.1/" xmlns:cc="http://creativecommons.org/ns#" xmlns:rdf="http://www.w3.org/1999/02/22-rdf-syntax-ns#" xmlns:svg="http://www.w3.org/2000/svg" xmlns="http://www.w3.org/2000/svg" xmlns:sodipodi="http://sodipodi.sourceforge.net/DTD/sodipodi-0.dtd" xmlns:inkscape="http://www.inkscape.org/namespaces/inkscape" viewBox="0 0 32 40.00000125" version="1.1" x="0px" y="0px"><g transform="translate(0,-1020.3622)"><g style="" fill="#000000" fill-opacity="1" stroke="none"><g style="" fill="#000000" fill-opacity="1" stroke="none"><g><g style="" fill="#000000" fill-opacity="1" stroke="none"><g><g transform="translate(-9.4480086e-4,-1.2002565e-6)"><g><path style="color:#000000;text-indent:0;text-decoration-line:none;text-transform:none;direction:ltr;block-progression:tb;baseline-shift:baseline;enable-background:accumulate;" d="M 17 2 L 17 15.96875 L 18.25 15.96875 C 18.26041 15.968424 18.27084 15.968424 18.28125 15.96875 L 18.84375 16 C 18.970007 15.996761 19.092814 16.041418 19.1875 16.125 L 21.4375 18.34375 L 21.4375 16.5 C 21.437528 16.223869 21.661369 16.000028 21.9375 16 L 25.0625 15.96875 L 27.59375 15.96875 L 30 15.96875 L 30 15.34375 L 30 14.4375 L 30 6.8125 L 30 2 L 26.625 2 L 17 2 z M 18 4 L 18.5 4 L 19.21875 4 L 19.71875 4 C 19.929185 4.0199665 20.104334 4.1700947 20.15625 4.375 L 20.3125 5 L 27.5 5 C 27.83782 5.0042328 28.074309 5.3353174 27.96875 5.65625 L 26.6875 9.65625 C 26.617336 9.8704123 26.412586 10.01118 26.1875 10 L 21.5 10 L 21.75 11 L 25.5 11 C 25.51003 11.000614 25.52125 10.999186 25.53125 11 C 25.56346 11.0073 25.59486 11.01776 25.625 11.03125 C 26.347983 11.136158 26.906266 11.750139 26.90625 12.5 C 26.906268 13.3221 26.228339 14 25.40625 14 C 24.58416 14 23.906232 13.3221 23.90625 12.5 C 23.90625 12.328729 23.94611 12.153928 24 12 L 22.875 12 C 22.92889 12.153928 22.968754 12.328729 22.96875 12.5 C 22.968768 13.3221 22.290839 14 21.46875 14 C 20.64666 14 19.968731 13.3221 19.96875 12.5 C 19.968737 11.92453 20.299963 11.438595 20.78125 11.1875 L 19.28125 5 L 19.21875 5 L 18.5 5 L 18 5 L 18 4 z M 20.5625 6 L 21.28125 9 L 25.84375 9 L 26.15625 8 L 23.375 8 L 23.375 7 L 26.5 7 L 26.8125 6 L 20.5625 6 z M 2 10 L 2 23 L 26 23 L 26 18 L 26 16.96875 L 25.0625 16.96875 L 22.4375 17 L 22.4375 19.53125 C 22.421064 19.96097 21.905807 20.170892 21.59375 19.875 L 18.625 17 L 18.25 16.96875 L 16.5 16.96875 C 16.223869 16.968722 16.000028 16.744881 16 16.46875 L 16 10 L 2 10 z M 3.84375 11.5 C 3.8955116 11.4918 3.948238 11.4918 4 11.5 L 9 11.5 C 9.2761309 11.500028 9.4999724 11.723869 9.5 12 L 9.5 17 C 9.4999724 17.276131 9.2761309 17.499972 9 17.5 L 4 17.5 C 3.7238691 17.499972 3.5000276 17.276131 3.5 17 L 3.5 12 C 3.4888218 11.774914 3.6295877 11.570164 3.84375 11.5 z M 10 12 L 14 12 L 14 13 L 10 13 L 10 12 z M 21.34375 12 C 21.119504 12.049918 20.968744 12.257566 20.96875 12.5 C 20.968743 12.7819 21.187375 13 21.46875 13 C 21.750125 13 21.968756 12.7819 21.96875 12.5 C 21.968756 12.2181 21.750125 12 21.46875 12 L 21.34375 12 z M 25.40625 12 C 25.124875 12 24.906244 12.2181 24.90625 12.5 C 24.906244 12.7819 25.124875 13 25.40625 13 C 25.687625 13 25.906256 12.7819 25.90625 12.5 C 25.906256 12.2181 25.687625 12 25.40625 12 z M 4.5 12.5 L 4.5 16.5 L 8.5 16.5 L 8.5 12.5 L 4.5 12.5 z M 10 14 L 14 14 L 14 15 L 10 15 L 10 14 z M 10 16 L 14 16 L 14 17 L 10 17 L 10 16 z M 4 18 L 8 18 L 8 19 L 4 19 L 4 18 z M 12 18.5 L 13 18.5 C 13.822351 18.5 14.5 19.1776 14.5 20 C 14.5 19.1776 15.177649 18.5 16 18.5 L 17 18.5 C 17.822351 18.5 18.5 19.1776 18.5 20 C 18.5 20.8224 17.822351 21.5 17 21.5 L 16 21.5 C 15.177649 21.5 14.5 20.8224 14.5 20 C 14.5 20.8224 13.822351 21.5 13 21.5 L 12 21.5 C 11.177649 21.5 10.5 20.8224 10.5 20 C 10.5 19.1776 11.177649 18.5 12 18.5 z M 12 19.5 C 11.714351 19.5 11.5 19.7144 11.5 20 C 11.5 20.2856 11.714351 20.5 12 20.5 L 13 20.5 C 13.285649 20.5 13.5 20.2856 13.5 20 C 13.5 19.7144 13.285649 19.5 13 19.5 L 12 19.5 z M 16 19.5 C 15.714351 19.5 15.5 19.7144 15.5 20 C 15.5 20.2856 15.714351 20.5 16 20.5 L 17 20.5 C 17.285649 20.5 17.5 20.2856 17.5 20 C 17.5 19.7144 17.285649 19.5 17 19.5 L 16 19.5 z M 2 24 L 2 26 L 26 26 L 26 24 L 2 24 z M 11 27 L 11 29 L 8 29 L 8 30 L 11 30 L 17 30 L 19.988281 30 L 19.988281 29 L 17 29 L 17 27 L 11 27 z " transform="translate(9.4480086e-4,1020.3622)" display="inline" overflow="visible" visibility="visible" fill="#000000" fill-opacity="1" stroke="none" marker="none"/></g></g></g></g></g></g></g></g></svg>

<svg xmlns="http://www.w3.org/2000/svg" viewBox="0 0 32 40.00000125"><path style="text-indent:0;text-decoration-line:none;text-transform:none;block-progression:tb" d="M17 2v13.969h1.25a.5.5 0 0 1 .031 0l.563.031a.5.5 0 0 1 .343.125l2.25 2.219V16.5a.5.5 0 0 1 .5-.5l3.125-.031H30V2H17zm1 2h1.719a.5.5 0 0 1 .437.375l.157.625H27.5a.5.5 0 0 1 .469.656l-1.282 4a.5.5 0 0 1-.5.344H21.5l.25 1h3.781a.5.5 0 0 1 .094.031 1.489 1.489 0 0 1 1.281 1.469c0 .822-.678 1.5-1.5 1.5s-1.5-.678-1.5-1.5c0-.171.04-.346.094-.5h-1.125c.054.154.094.329.094.5 0 .822-.678 1.5-1.5 1.5s-1.5-.678-1.5-1.5c0-.575.331-1.061.812-1.313L19.281 5H18V4zm2.563 2l.718 3h4.563l.312-1h-2.781V7H26.5l.313-1h-6.25zM2 10v13h24v-6.031h-.938L22.438 17v2.531a.5.5 0 0 1-.843.344L18.625 17l-.375-.031H16.5a.5.5 0 0 1-.5-.5V10H2zm1.844 1.5a.5.5 0 0 1 .156 0h5a.5.5 0 0 1 .5.5v5a.5.5 0 0 1-.5.5H4a.5.5 0 0 1-.5-.5v-5a.5.5 0 0 1 .344-.5zM10 12h4v1h-4v-1zm11.344 0a.497.497 0 0 0-.375.5c0 .282.218.5.5.5.281 0 .5-.218.5-.5 0-.282-.219-.5-.5-.5h-.125zm4.062 0c-.281 0-.5.218-.5.5 0 .282.219.5.5.5.282 0 .5-.218.5-.5 0-.282-.218-.5-.5-.5zM4.5 12.5v4h4v-4h-4zM10 14h4v1h-4v-1zm0 2h4v1h-4v-1zm-6 2h4v1H4v-1zm8 .5h1c.822 0 1.5.678 1.5 1.5 0-.822.678-1.5 1.5-1.5h1c.822 0 1.5.678 1.5 1.5s-.678 1.5-1.5 1.5h-1c-.822 0-1.5-.678-1.5-1.5 0 .822-.678 1.5-1.5 1.5h-1c-.822 0-1.5-.678-1.5-1.5s.678-1.5 1.5-1.5zm0 1c-.286 0-.5.214-.5.5 0 .286.214.5.5.5h1c.286 0 .5-.214.5-.5 0-.286-.214-.5-.5-.5h-1zm4 0c-.286 0-.5.214-.5.5 0 .286.214.5.5.5h1c.286 0 .5-.214.5-.5 0-.286-.214-.5-.5-.5h-1zM2 24v2h24v-2H2zm9 3v2H8v1h11.988v-1H17v-2h-6z" overflow="visible" color="#000"/></svg>
